X: 1
T: Humours Of Old Knockamee, The
M: 4/4
L: 1/8
R: hornpipe
K: Amix
|:(3AAA AecA eA|AecA dBGB|(3AAA AecA eA|BG (3EEE GABd:|
(3eee ef edcd|ef (3gfe dBGB|(3eee ef edcd|ea (3aab edcd|
(3eee ef edcd|ef (3gfe dBGB|(3AAA Bd efge|(3eee deBA A2|
